X:1
T:Title
%%score { ( 1 3 5 ) | ( 2 4 ) } ( 6 7 )
L:1/8
Q:1/4=93
M:6/8
K:G
V:1 treble nm="Grand Piano, Soprano"
V:3 treble 
V:5 treble 
V:2 treble 
V:4 treble 
V:6 bass nm="Choir Pad, Beautiful Easter"
V:7 bass 
V:1
 DBB BB_B | B c2- c c2 | ^c d2 A ^G2 | A B2- B2- B/ z/ | DEF G F2 | EDG A B2 | B A2 B A2 | %7
w: By~Samuel~William~Beazley * * * * *|||||||
 ^c d2- d2- d/ z/ | z d2- d e2- | e B2- B A2- | A3 z3 | z E2- E D2- | D E2 z ^D2 | z D2 z B2 | %14
w: |||||||
 z ^c2 z B2 | z d2- d3- | d d2- d e2- | e B2- B A2- | A3 z3 | z E2- E D2- | D E2 z F2 | EDG B d2 | %22
w: ||||||||
 z B2- B A2- | A B2 .B3 | z6 |] %25
w: |||
V:2
 B,DD DDD | D E2- E E2 | E D2 D D2 | D D2- D2- D/ z/ | B,CD E D2 | CB,D D D2 | G G2 G G2 | %7
 G F2 G A2 | z2 G .G2 G | .G2 ^C CCC | ^C[EF][DF] [=CF]CC- | C<.C[K:bass]_B, .B,2 G, | z6 | %13
 z3 z B,2[K:treble] | .[B,EG]2 E .A,2 E | ^C D2- D D2- | D z G .G2 G | .G2 ^C CCC | %18
 ^C[EF][DF] [=CF]CC- | C<.C[K:bass]_B, .B,2 G, | .G,3 .C2 _B, | [_B,^C]=B,[K:treble]D [DG] [E^G]2 | %22
 .[E^G]2 ^C .C2 =C | C G,2- G, [A,G]2- | [A,G]6 |] %25
V:3
 x6 | x6 | x6 | x6 | x6 | x6 | x6 | x6 | z2 B .B2 B | .B2 G .G2 G | GcB AEF- | F<.D^C .C2 B, | %12
 .B,3 .G3 | .G2 B, .G2 G | .B2 G .A2 G | .^c2 F GAG | .F2 B .B2 B | .B2 G .G2 G | GcB AEF- | %19
 F<.D^C .C2 B, | .B,2 C .G2 ^C | x6 | .e2 G .G2 F | .F>B,D/G/ z/ d/ [Bg]2- | [Bg]6 |] %25
V:4
 x6 | x6 | x6 | x6 | x6 | x6 | x6 | x6 | z D2- D E2- | E B,2- B, z z | x6 | x2[K:bass] x4 | %12
 .G,2 G,- G, z G,- | G, z G, .[G,B,]2[K:treble] D | z ^C2 z B,2 | x6 | z D2- D E2- | %17
 E B,2- B, z z | x6 | x2[K:bass] x4 | x6 | x2[K:treble] x4 | z B,2- B, A,2- | A,3 z3 | x6 |] %25
V:5
 x6 | x6 | x6 | x6 | x6 | x6 | x6 | x6 | x6 | x6 | x6 | x6 | z2 C- C z C- | C3 z3 | x6 | x6 | x6 | %17
 x6 | x6 | x6 | x6 | x6 | x6 | x6 | x6 |] %25
V:6
 G,G,G, [=F,G,][E,^G,][E,G,] | [D,=F,] [A,,A,]2- [A,,A,] [A,,A,]2 | %2
 [G,A,] [F,A,]2 [D,F,] [D,=F,]2 | [D,F,] G,2- G,2- G,/ z/ | G, [C,G,]2 [C,C] [C,G,]2 | %5
 [C,G,]G,-[B,,G,] [D,F,] G,2 | [G,D] [A,^C]2 [A,C] [A,C]2 | A, A,2 B, C2 | %8
 z [G,,G,]2- [G,,G,] [E,,E,]2- | [E,,E,] A,,2- A,, [E,,E,]2- | [E,,E,] z D, .D,2 D, | %11
 D, [G,,E,]2- [G,,E,] [G,,D,]2- | [G,,D,] [G,,E,]2- [G,,E,] [G,,^D,]2- | %13
 [G,,D,] [G,,=D,]2- [G,,D,] [G,,G,]2- | [G,,G,] [E,,E,]2- [E,,E,] A,,2- | A,,[E,,D,]A, B,CB, | %16
 A, [G,,G,]2- [G,,G,] [E,,E,]2- | [E,,E,] A,,2- A,, [E,,E,]2- | [E,,E,] z D, .D,2 D, | %19
 D, [G,,E,]2- [G,,E,] [G,,D,]2- | [G,,D,] z [E,G,] .[E,G,]2 [E,G,] | [E,G,]D,B, G, E,2 | %22
 z A,,2- A,, [D,,D,]2- | [D,,D,]G,,B,, D, [G,,G,]2- | [G,,G,]6 |] %25
V:7
 x6 | x6 | x6 | x6 | x6 | z .G,,2 z3 | x6 | z D,2- D,2- D,/ z/ | x6 | x6 | z D,,2- D,, D,,2- | %11
 D,,3 z3 | x6 | x6 | x6 | x6 | x6 | x6 | z D,,2- D,, D,,2- | D,,3 z3 | z C,2- C, ^C,2- | C,3 z3 | %22
 x6 | x6 | x6 |] %25

